X: 11092
Q: "Slow
M: C
L: 1/8
K: D
d2 d>e (dc) cd | TB>A(B=c) ~BAF>d |\
(df) ad (cd/e/) dc | BAB=c TBAFd |\
|: A |\
d2~d>e f2ef | g2fe fdB>c |\
(df)ed (ce)dc | BAB{d}=c BAF>a |
a2 (a/g/f/)e/ d2dc | TB>AFd Td>e {de}Hf2 |\
{edcB}A>B (A/G/)FE D2FA | B>cTc2 d3 :|



